X:174
T:Timothy Sharp THO3.174
O:England;London
M:6/8
L:1/8
Z:vmp. Peter Dunk 2011.from a transcription by Fynn Titford-Mock 2006-9
B:Thompson's Compleat Collection of 200 Favourite Country Dances Vol. III.1765-72
Q:3/8=100
K:D
G|dAd Td3|eAe Te3|eag fed|ced cBA|dAd Td3|eAe Te3|eag fed|a3A2:|
|:a|-af^d eBG|EGB E2 g|-gec fdA|FAF D2 A|Bge caf|Bge cBA|Bdg afd|gec d2:|

